/* XPM */
static char *texture_east[] = {
"64 64 32 1",
"a c #C79B91",
"b c #BF9389",
"c c #BB8F85",
"d c #B98D83",
"e c #B68A80",
"f c #B4887E",
"g c #B2867C",
"h c #B1857B",
"i c #AF8379",
"j c #AE8278",
"k c #AD8177",
"l c #AB7F75",
"m c #AA7E74",
"n c #A87C72",
"o c #A77B71",
"p c #A67A70",
"q c #A5796F",
"r c #A2766C",
"s c #A1756B",
"t c #9E7268",
"u c #9B6F65",
"v c #986C62",
"w c #93675D",
"x c #5B413C",
"y c #42302E",
"z c #412F2D",
"A c #3F2D2B",
"B c #3E2C2A",
"C c #3D2B29",
"D c #3B2927",
"E c #3A2826",
"F c #372523",
"mjblgigpckjnngeuyzldegdcehdbgggcpuyEaabacbabaaaaebarFAggdacaabee",
"pqsrusuuwwuvvrtnzDhptltwntktujuqkuCBaiddagicgeebhfrqyDhpgipgigmc",
"ntutquprnqtwsqtvDDqkqsurkptkkmnlotEybaoccgdcdhfcbeekyEkipmigofrg",
"uwruvusttpvuupqtCChsnntrrierrwqrutFCblcblldekgffcdbezybgpfidigic",
"ousuttsluttrvvtvCDqokqqpussqrulisuAzgbgbegfciggnbdegECbetvoelkgn",
"nqrsuruoivwusppwEyrlsnnnnuqrqlsttvzEaeflecnbbddabiemCFcmikflngdl",
"isunvqusvvpstuswECqtrrrimlrsvswtnqyEbicfcacaegbbhelmzCgqhfgiqcjk",
"lwwwwuwwwwwwwwwwFyvwqwvwtwvvwuwwwvAzcrqqkpmosksogtosDFfuslrqstuw",
"ByzDyDDFEDyCEDCFBzAzFFyyFBBzBDBBCFFEFAzADByEzzAyEzEEEAEBEyyByzyB",
"FyCEDFCEyzFFDFCCEDzyyBzEAEzFECzFDBBEBDyzFFByBzDFzBzFBDzDDDyBEEEy",
"nidbfccsBycadadeacadabdbaszybbbadkbcaaccacbnBBjbbmaebideeccjeszD",
"rqtuirpvyyeflbelcgfglkeimeCDeedfdniigeqaledjAFplttwjntqqtronjuDA",
"sukrpnttACclsjmegkhcdggjilCAgppiccloeendgcfjAElsltumkikussqvqtEB",
"kqllnorrDDblgdhheepocgrohszBbmeblcdehmledcdjDEjnpusuptqopitvlqyA",
"npusnsgwDyfnolcgfkehmkgdimyEhdehfieidmlgiegqADrtsrplngjqhkroktyA",
"mrnrmvoqzBclljiemdplidlrfpEEegenbgiegbciiiikDykqlvtnqqnsquvjtvyy",
"ssqtnppszyaqenoeljdlmgdfprCybdcieelgemdedkggzEiiqneqqtsiqttqmvzD",
"vuuwvuwuzydsrtsqquswntqurnyFbrtorrtqqrtspkrgCEhwutwvnvvuvvvwswEz",
"BFBEDFEABAzCDDyBACBACCEEAzzBEzzFzzyEFzFEEEFDyAADyzyFAEABEByzzEDE",
"ByACEACFFDEyBEDyEzAyzDzByCyCADBBBzDEyDDyzFDzzDyECBBzyCyDCyByDCCB",
"ebaabaadeaabacenFzbaaaaabaaaaaabacCzikcbbcijklkdcjdwDElbbbcdbcbe",
"cfddglqhcctljngoDCeggbjdbdbecbabaiByjlohguiqpsouttqtzAfqghgcijsf",
"dlfmkbeeeegbieiqFFaaedbgagfpacagciBycltnlpppuqkurnvvFDjnljjtcjnl",
"cmjkflfgidhnghinyBadbdfhbbjfbbieblDDsrqvrmqntltittuwDDefekdnnnfq",
"icbcphehqjqnbepuADaedcglhfdddbgaagByirstuomurqtttwrvyzeicchiqkjm",
"arigfcolhhjldnlhyzcgghebcffhblcigqzCbuuppswlpqtptrssDDbhijelgbgm",
"ihnqlnepclhegenvDFbbeehedjchcebbdjAyhrqkvpultsurojvwxzegtchpdlng",
"ctrvvnlpqsruitpoFybplqlqilrgkqjjdnzCjwwvwwwwwvwtwwuuCBgtrntnihrn",
"zzzzzACAzyAzyECzBEyCEyFBDBzECCEyBDDDBDyFFCFCDzAyyyzyzDFEzFBDzADB",
"FAzFzCBFzzBEzyAyDBAByzDzEAzDDEBDyzCFyyzAADyAFDFzzyyDzyzDzzyBCDDD",
"aaaaaabhyFnghegcidegbdcebrCFdbbbcbfcbefabddwFCgrlbegdiieencqllDz",
"iegfcabdDyfgpogknqnljqplsqBCrsqorklntenipliryCewuottwnwqspmuuwFz",
"fdiegeifDFfprdotqmpiirnlquzAnonmpfqrlurisqgqBBrrthqtssvulvuolwyD",
"bcecchamyDrsokfnptnmvhidrtBFkqjjfnsjkigoiqlpCBtusvuhruvmwtqurwCC",
"eeebfgfmFFpnrqciprhrilhrjwDzetiknqnphkhisldvBEsspqrpwqrttvouwwEC",
"beealdbeyEgpqrtmlskrswilquFAgjlstktlisimjpmryzlvrutroqstnusmtuzy",
"bledcdafFDsfoouqmqqrertrquDFilsdetohgeurpkrrAztstuntnullvrrvquEC",
"jorfsmigFDivttuusrwnvtwvwpzCgtvvvrtwtsovslutzDnwwvwwwwwvtwwwwuDE",
"EFzyFyCFzzADyDzzEFFDAFEyFAAzFAFyEAEBFBzCyAzAyEDDzBzBDCAFyDDBDFDy",
"yyDDyyCEFyFAzyBCAzyzEFADyFBEEyBCzEDDyAzyCCFzADyFAFECyFEFyzAyAFDF",
"abaaaaaababbaaakyErdkgdhidfjniplmuzDcbbaaaaagaaaaaaiyzjijneinlnb",
"bcihbecaabbceaijFFkqqstttmkqtuqswrCDdibiecacefbbfcesEzgptuqrwpup",
"abbbhgbcjmbabecuEyiwlpnsruqnuqtmnwAyceejebcbbbdcabdnEAlwrrrtgovu",
"abcdeehbqfbgiabjDDosuptwvruwkqttqrDAcdjneechbebfbeegFEewtqltsvtn",
"adcccehbibaaahcnEFsnolmousoltttkpvEAgeggdcaechlbaieeBFispuonuqut",
"cefbehabbdbdgccizFltsprtnrnlsurnqwFEdcdbeaecfcbbbgcdACntrlqsuvgt",
"bececafbdbecglinEDguqrtuqpssrvrqiwEBcfeeeclcoabgbecgABkstuwlpvqr",
"gqmegfkgriirkeddDCotwwwvvwwwtwwvvszAahllsmqsotrqloldzEtwwwwwwttw",
"DFFCCDzDyDzDBzFECDBEFCBEyzzzEyEAzABEDByDzABDCFBADzADzDyEEDAyBDyy",
"CCFByEFBFyFDCyAFFBFDEzyFAzEDFDAyyDEyFFzyEBECCEACACFBzEyADBDEzzDC",
"jfclgigsEFlmbigeegecgbdqcwAycgecaeabccahfbbvEEabaaaaaaaaaaaabjyy",
"wrutttuwBFqttntqqmqlqomunpBDblfulnjfmmvhelnqyzagkcbfegjgndcbhnFF",
"pgvtpuqwDzlulqstnsplqkunnnBzgqqphplgfgernkgqECgcmdbbldfebdkicjEF",
"uuquqnwwyDklsrvnsrwlmtkwqwyFmphhjncpkerqgjrsyDaehbbbeeddfgbjgnDF",
"uquulvpvFDmklruvrurrolqnrrzycpsigpelmkstnrmsFEbpglnbbggbbecefiDA",
"tuurqrvvEFlmnnjmrmronqurruDFoiikmdilhmikilnqyEcicebhcggcfgbebbDD",
"wvrssrvwyBeqmsqqojnwqqmpswDEbilgcmlnroqjjhpnECabbabeehdhgilabtAD",
"wwwvvwwuzAjswwrutvwwvwvvtsyDgqswstuuvprtqqvuEzbgknsndqqngnrqnjyy",
"yzBDzyzCzCCCBByBCyzyDyBECEEDyFACyAzyEDFEACADDCEEFCAFDFEBFADADFCz",
"DAEDyCEACDzFzyBFyyzEDCByzFDCyDFDBFyCzzzyyDCyBDBEDFByzzBEABCBDBzy",
"eabjicebfcdddbbsBznkkijgadgeecclbwBEniaaefaebababiewAFnllglmeiqd",
"lihlnllpgnnenrkrByplnlsssqnkvnqruuFyklmirhjejltnennszFfqqsktqsvt",
"cllkopjohgeflippDyqrtppuiqvuwwswqwDyhlfnipnllpkiilqpzEvtopvnvptp",
"dlgnlloffkpiihkryDnwtttptqttwqputwDEemiqtmoelfjnsnisBBtsvtnwtspt"
};
