/* XPM */
static char *texture_north[] = {
"64 64 32 1",
"a c #7A818B",
"b c #727983",
"c c #6F7680",
"d c #6C737D",
"e c #6A717B",
"f c #69707A",
"g c #686F79",
"h c #666D77",
"i c #656C76",
"j c #636A74",
"k c #626973",
"l c #5F6670",
"m c #5E656F",
"n c #5C636D",
"o c #5B626C",
"p c #59606A",
"q c #585F69",
"r c #565D67",
"s c #555C66",
"t c #525963",
"u c #505761",
"v c #4D545E",
"w c #484F59",
"x c #393E47",
"y c #272A30",
"z c #24272D",
"A c #23262C",
"B c #22252B",
"C c #21242A",
"D c #1F2228",
"E c #1D2026",
"F c #1A1D23",
"febdfcbdfbjgcicszEbadaaaaacaaaaaahCDtknejfjimgcklklwCDaaaaaaaaaa",
"nltfmppnnqqmoihsBFadcancibjfcbdhffCFkrptpvruqpvttoqwBzakfajjcbgb",
"gelhpmmhjpjjmnmwCCcbjfeakbbcbhnbikEzkvpststrstpusrnwyCbgbdiifgba",
"dknlicinlnpmldlmyCabecdedcchdkcbciADprpritpntvvsosswAFadjajijbhb",
"ekroerpmikjrijslyEbajljffbcjbabbdeEzoorvsnvuvwpnpstvEzabfddaclca",
"dilttrmkjnhnpiqwECleejjefackhbacccCDtukwtwsptqqrlptwEBbaaeealebh",
"jnjlkjlhpstsohltEDbfjebmemcgmcacbkFAqwpsupvqvrvmsnvwzFdbcbebgjkf",
"jvxwvtvvwlwnntvrEBbjhenhppoqhiglklEBnxwxwwwxvwvwxwxvyBbnlsllonlp",
"EzCyEFzzEFCFDFDFDyDzDEFzCyFDCyyDEFyCDCFFzBCEAyFCDBCCECDCCADDzDDz",
"CCCFByAFCEDCFyCzAyzFCFDAzyDBCyyDyCDAzADyCyyFEECCBEByFCCCCyyzEyBD",
"llbjjsgwEAnbblelebkafjebktFzmkdnkbjchljikllwCBjpdhnhdedddhqkfwAz",
"tlvpuvrwzEjspptltskklmetrwzBintuvjnptsttwstvCzlnwujvsntnvwvvrvBE",
"jttrtvtuAzlrfpllitqqpwownsAFjuvvurowtorpwnwvyykntslrrvqottkqswDD",
"nulvuptwCBrpopkrpnkphsjspsyzpmsuqrntqprsuorvDCqrnqnplrvpruoppvCB",
"lvtswwkxAEmvsktlmeqjkpuhtvzzrstnhwowsvjruttvCAenvvtmstqvupsspwDD",
"rtwtrlvvDzhhlqqmmdhtmtuklwyEsprssrsswvpupmtvyAdknrtupprntlrrrvyF",
"soqtlvwvFFekkqnsgkkvkhjkouABltkvstnlmpvjpsswBBnwrporpmskwvtwuryC",
"twwwwwxuDzpwvswptwrvrmtwwsBEqvrxvwvvwwxxuwwwFBgtxtwxwwwwxwrwvvyF",
"zFDCyEFyEDCCCBBzDEEACAAyCzFEDFAFCFEDDFCzADDEAyDFCAFCyzABzEEBDBFz",
"zCCyEEEDECDFFyCCCCzADEEFyEFEEBEAByyyyEDByAyCAzDzzCzyCCDDCDDEFEBE",
"haacacacbadadbcqCCgaaaacaabaabcbalFDjcblbabcaffgbbbnzAcaabaaabba",
"bnkhlhmlkltjjhooCFlekcajjhdlccdjcjFygimienrlpnkkeoisyyaagkjkiebb",
"clnjjjiksonclhdoDDgfceddbjgdcrjhljCDlpoipsqmcblfdekuDFablecbabhf",
"bmkdjplhkeemlkpoCzekbkjkikhkjedeklCCmhkchppenhlbjdesDybhbadaeaeb",
"ckjlookohhhljjdtDCcjjcjcabodedndlhzygqefldhpllkjmkhqCDbldidkbcjc",
"hchnjjeihogbhjjtBEcikdnglbacbddiklDDckqknkoecohhojdmyEcccdefgcpa",
"hphpilhgdlkjphjuyyhdcdkmhjghejhahjBBjhkgbjgojdkmjkkryEbgbebddkbc",
"dstvortusslpuvttCBbnqmtplnttvhuphiyDcesrtsrmvwsrmpunzBbjnthsnnnn",
"FACCzzyyAFBCCDEzzEACDACDCFDDFCBDCAzEBzCEEDEyDBCADFyCCCyzzzCBEFCE",
"yyzDyFFEECCyzyBCDFEDzFFCEBDEFCEDDCCFCBzzCEEzDzyEBCyzDBECCCBEFDED",
"bekpphewCBadaaaabbcaaabbalyBkaabhabakakcaghryyeaaaabaaaahcaaenDC",
"tpnqvvuwDDecccgdkkidgkfdepCDejebcfkkkdthrjcsFyaeckcbdebckbdfbjzD",
"pvtwwrtwABefgighjheajdmbhlyzkgjfiehjdpkmjkjrDFcejjjbfehjkbnegnFF",
"pvpqrpvwAFaigkejhkbndedkciCBeflghptjjdikojltCzclelnejcekfbhljqEF",
"rotppltwBCbbhekgjjhhecmcplADelevmrhddfhldfmtDzabkibfdmigiinbfszC",
"qtvvrprvyBabeghkmbfibcfcgkyzeedjkbjnhbfdrkcqyAbbiifenbehdhbfcqCA",
"vusnppruyBbcnfdchcigblfgfnzEjgngiljjgkjojriqyyccelrcepdcjdnhgjBB",
"wwuwvwwvByarmnstnrtpnntrjpDyctwpvruvkrnntrskBDannsnuntoqonppuuyA",
"FyEABCAFCDCDDEzEBBCBADByEDEyFCzECDFCADCAyFADFEABEyBCDBDzBADFAECC",
"EzFyDzyEEzCCFFAyDECBADFyDyFBDEzyDAEDDDAFzzCEFCDCECCCBBzEACDEyBDC",
"bacaaaacbaaaaeakADjcbfmgdebhkjdklwyBoeelehrnhfjlhpfwCDbjdacaacab",
"biicejjcajcslcblABhunsrqrtrtknsjktDBklsthlqupnoormtwDDaqinojqjbj",
"bjdlefafhhkcbhcnBBrtmwqstqpowjslrwCygtrnprsvonitpsmvDFcjelbmhhek",
"ekcedjeecljbhfhsEBohvwsuksovnnlpouzDktptttlwvpvttitwDCcphbrhgjkt",
"ahgbpfdcdaeccljcDCrsvtottkoomsswnvCEkprwusuqnustnngvEBfjdkgsejkl",
"ahbhedaeefhiabilEzjqtnnrnvttqjqlrvzAhnuwrvvvtssjvsvwCBkenejfhkhp",
"ghbjibefkedfcdbiCzdpuprenurkusqrtvFDpttsttqnnvrptpsvFBhmkefiflpr",
"bponjsrglpvsppnnzFnwuvuwjvwwwuuvwwyzwwwwtxwqwwuwwwtwECbuqttmtern",
"zFFAEDDEzzCAEzEyDDzAEACCAAzABCyEyyyCyzzyCAFFBBzBFBzyEEDDFDyEFDDA",
"ECEEBCCAECCzFDBDCABFFFACyCEzFCCzzDECDzByyEDBBDFyCEFyBCECDFyBDEDy",
"aeaaabboCFrhoijehjjfdlokrwzzaaabbaaafaabaaaqyDlclfljlbofirbkjvEE",
"jnjdnqjnAEvnokupnwmlpposvwCEajhpekbofjjbckbqzFottwwspstvtturrvDE",
"kkqkqrmsADklrptnrrvutrmvswyCedleobhjmhhkciglyDmrpwnsuswurlsqttDB",
"knnldaksAAojnnrrnvtrvkttprCEffjactkeapjckgjkECtnpsrstrqstttqrpCC",
"ljkmicmsCBhtstutvpmttlskwvEDbchdlfhodkekgehpACpsstoktsuvnuqvtvBC",
"hiechjnrDyttuntwwqvmmvsrvwDCbpghijcbjhnjdhfnCAkwswsttlqnpkttsnDC",
"delchcglEyprmsrrrpvtiwtnwwEyfdjhlnjnhgebblkfCDitntmsonkutvwtrsDy",
"rnsvksnrACnwvwwuwwxwuwwwwwFBjkltwwoqknjltqtoDDhwxwwwwwuvwvtwwvCB",
"EyCADCFFFzFFzDCzABAFyyyFEDyAyBDFDyEFByyyzFDDCEzyCDCBzEyCCADzyBCD",
"yzFzDECDzFFECAEEFCEyyECBDDADDCyDBCACDDCCDCyzFyCEyCzDzDzzEBBCFBDz",
"tfjbofmofhfrphntyCebbbbaccbcbaahfqCCcmekfckbijlhicltzDbbababbabb",
"nqvttrqssmvnrwtxCFcncmjpkjhbcgkkktAChpnhnkspqmnrnnutyEaehfkenmel",
"fspputrtmpsntqswEDdhskhknncqkfsgqlyEjmrlrrsomkpsqrqsCCcijeiimkke",
"vrtvvrswvvtvsvutCDepqjlpfgjlklfpipEAlgjpqrrntklplennDDbqdhkhhcdh"
};
