/* XPM */
static char *texture_south[] = {
"64 64 32 1",
"a c #DAB47E",
"b c #D1AB75",
"c c #CDA771",
"d c #CAA46E",
"e c #C8A26C",
"f c #C6A06A",
"g c #C59F69",
"h c #C39D67",
"i c #C29C66",
"j c #C09A64",
"k c #BF9963",
"l c #BD9761",
"m c #BA945E",
"n c #B9935D",
"o c #B8925C",
"p c #B6905A",
"q c #B48E58",
"r c #B18B55",
"s c #AF8953",
"t c #AC8650",
"u c #AA844E",
"v c #A6804A",
"w c #8E6D3F",
"x c #4E3D2C",
"y c #4B3A29",
"z c #4A3928",
"A c #493827",
"B c #483726",
"C c #473625",
"D c #463524",
"E c #443322",
"F c #41301F",
"ldlhilbciiglelhvDFqjigebcgcibdlccwEDibbaaabaaabdbaaizEhdljndhjhg",
"mttungupnspslrprDFmlpnsolpgpstkplsxxcebkbbcfdjehegdfFyuvssqvsrns",
"ispqmssminoqlmisEDosjlsgnsmprupnvrzDbfigbleehgliedibDBpsmtmouotg",
"msutrstrqjursutvyCmmnpmrmmqsiocrluAydeeecbcegjigcgkiEEpqvursutmt",
"hmqnqrslqrshmprvAApklsqqoptinjjpnryCdeignejgedbelehjDDptvtsnsspq",
"empkiqpuqsqqppntDFeiqmttpisriulmpsxEcfhlbemhddleeddrxBggsupstult",
"qqspqsmrmkqrplptCAhrqprompqrhlsrgoBygecmicbhdbglegbkExpqpprpsvss",
"luvrqwuvwuvvvsrszCjvuvtsurlwuvvvuuDDduipqlpujsomhimoDygvvuvvvvvu",
"xzFFBCxCCyyCAEExFyzyyzFEDyEDDxFFzFADFDEBAxCBDCyFzDBAyADABCByBBFC",
"FyExxDxADEzxAFECxAAxCCCFAAyEEyAxEBDADzyzFyAEEBzDFABxFxxAxByEBEFD",
"aaaaaabgBCggbaaaaaabaaabdhECjgbcfdecegfecgeqxyvjifceqfgfcldogtxD",
"ibeaefbhyFakelnigcfeealcimDynrnrkjpjpmmemqqoFDnvsmptopisrqqqqvFD",
"hgebbgbeCFledglcchipeoeeggDzelpilnnmdmorrtmsEFnsupqqnsltporpuvCE",
"bcbcccdkxFddfcemindcjejnjsDBehpmllvqkrmjtomsFApnpsqssurnqqssovxC",
"abebcbblEDiigggjeqjjeeeherCFcgpqusmospqllpmsFBmovosqmuunutprouCy",
"adabcbglBCbnjlidmeljejehipFEimsjlsrltqnonlqtxFoqsmqovmmtlpnkqvCF",
"ffebbfbpECbefceclpjegeefeqyEislshsmnqipgrqtqyBmtgovrvlilqsupsvDD",
"gdklpppeBycrtruhprhrnqorohFFdtrupnvsvvusvvqsAFpvvvsvwvvsvvvvvvyA",
"DAFyzBFxFEEzFBDDyxADFxDFBxDFxzByFCDxDDFEDBDxAzxzDFAExEFCyDBBxBCE",
"FxyEzBDDzFDCCDBAECDxFDzDDDBFCCFBDByAFAFExCxDCFyDzAzACCEFAxyxAEEy",
"cbacabbabaacadbkFyaaaaaaaaaaacdaapAzcadbaadbaaaadbarCFcdbjiaeecc",
"llghfjigllkhijinAAeblcgcbmcdgdgeigzygbbikkeelqgihfmoDAdmqhknsqml",
"efkjeigedkimmgktzEcddemcglnbeecelhyAbblkehheekhljmqqDycmlpqoolmf",
"epglgdkhelgeedelFFdbenfdlcibeakdleBydmlnmhdeflflgeipDzjroqgmslkl",
"eggdfbichpmppcklECebegeaccjgdlbdelCDbedjlcmlednjiillDDqmtklplmnl",
"djlbgheiiedenghlEEbiiebdbicehfheheDFegjellcifgfiidknzDolilskesun",
"ceegefghiefjdlimFDacihieeldeegeldjCEbdpghrfeehlkfdkpzFfntjqjgrrm",
"kmplupoumtptmipmxDbjlfhemhpiedqmjnzzersplpeurntpmpqkzyeuvustqsqs",
"DyzEDxFyBBCDxDCyACCFyEFyyADxEFByzxyCCyCCFDFAByxCxEByxECBCEFFCFxx",
"FDxxyFDxBDzyBAyDEyEzDyEyADECEEyzxFFFzyFyDECzCCEFDFzExFxEEAyCDxzF",
"kchfblhvCztjjfmpipjhnlpuqwBEdbabbaababbebbbeDAibdadbbdbceecaepEA",
"uurusosvFDkssqpptuvutqrupwEEgilkcmlieeiiieluBEgflerlkiplllrsjqBz",
"oupmoppvDyirtsplquqrjqssvvDEcgdbghpeekikcecrxEllnenohgpnmmeggmBy",
"stlvrtvvBArqrqvtuquuvvupvwADbeiijglgckkkeeckBAmjldfpoispkilgmqCE",
"rtrvrttvDykpprsvtpquspsmuuzBceqececlgficejdjDzekqgilklmolonqmnBB",
"ssvltvquDFtmsuluuqrmvrvruvEyahijelaibgmnikirxxpkgmmgjqgneptlgpBE",
"pvputvurFBrpvsplvusnvquvvvyClkddgcmmbeijrepuCxilolsdpjtekdphmrxE",
"ussuvwtvyDpvvvvvvvvwvvvvwuEAlnmsmqkmtquqnlpoBDfpsquuslpmspvrvmAy",
"ADEBxzDDDCCDBFxAxACBBDDxyDzExEyBBECEEzxDyBDxzyBBEDxFAxyyCyxCxDFB",
"CEDDFxBxBAFyEzyyEEyxxBCxDyDFEzAzDDACFDxEzCyEFADCDyABEFEyzzDEyBzE",
"rhhpjpehcemjmkgvBFbaaaaabaabacbbalDCuigfekjllidplhmuFDocfbdgeccd",
"qsqurvqsutvstvuuBBccecamgehbfbcdegAxloqqvrquvsqvqpsuADekqjiqimqp",
"sruuvsvurqusrsptCFbbbbbgdbdcijaccexxuqovvslpjqomqrrwAFliksjilijs",
"ptvsusuplussrtvvCEbgdffedebdhbebiixxnttsuuuurvrpuurvyFhfledofklm",
"qutppurrvqvvqmvvEDcilbghcgbcbgclllDxpvrsruurpqpvsrpuDChrliislrgj",
"muvvtvvmvrvsqrprFAbdbdbbechddegbecxypprrupqstsutmtivyycjrggltgpm",
"korumptusvmrtrvvDFcdleldlcccbeecgrFFmtsprksumssorptvzDileellpfkh",
"tvvvuvvvwuvwuuttzBejkokpillpilplnfFEevvvvpwvvvvvtvwvFxevpqrsutvo",
"xzzFDFFzxBxyFDxByFxEAxBCyEEyFFxFzyCEyExxEzDACEzFACEyBDCCyDFFEFDF",
"ExFyCxyByAEzzCADACFCxyxBDEByyyDBDyzDBFyEDzyDxxxxBxEEBAExFFDxyABz",
"ijlqfliuyEgceeejgkbijedgisyFabaaaaaaaabaaaajxCfbbaaaabbbabaaaeEz",
"spsusuvuDxbplpupispptnpmpvBzbbblblidggbgbabnFBagifcbfgdehmeigmEz",
"prusqsqwDxfpoflrnqqslflsmvByaccddagjaajbbegiDydbibcbggfbiigeflFD",
"vpsqvsrvDDjntnonrpjkqiqrksxCbbceddddjbeefdbdABdgefjekbehdigbbqED",
"ksruopvvFEnsqlkoltiepmnulsFDabiefcfddiccfbapBybiahfibojheecfilED",
"urpvussvzCqjsinntnprmlksrpzybcbhfcbebghbgcegFFggbcefbfcbdeefepEx",
"svoorvltxDippsrqplmultmppuExigbddghbdcbkgfcfEDcfbiepfedhhlhamrBE",
"uwtvwwwvAFbsuvlvsqvtvqqtuvxxaelpgpnirlmpplmiFBfqkqpqnlplslonroAE",
"yDAEFzzCzCzBEyExCECBBzDFEAyFByFxECDxyBDFDDCFxyxDCFyCxyyzFyFAzEDC",
"AABEAxDxEDxyxzDBDyzxDDDDCxBxBFFCyBFBDzyADEDCADDzyAEDxEDyEDxyFzDF",
"cdcebbbabcbbblbhyDfgcflqjhlpgmelivzytkjjhcleiknllectyDijkeidegie",
"ejelppnnkdnmlnmmxDpprsrsurutrvquuuyygtrtsnpppsltostpCyosloponmom",
"ejesgkjlmhpoodkqFBlvssrpmssuqsrqtvBBmrrmsqrmsrsoppqoAFruruquqsop",
"jdpmpgglshdoigltCDnvrsvvrpqisvsuvuEEestokvuspqmurlvsEAponqktmtmm"
};
