/* XPM */
static char *texture_west[] = {
"64 64 32 1",
"a c #C68A60",
"b c #BD8157",
"c c #B87C52",
"d c #B67A50",
"e c #B4784E",
"f c #B3774D",
"g c #B2764C",
"h c #B0744A",
"i c #AF7349",
"j c #AE7248",
"k c #AC7046",
"l c #AB6F45",
"m c #AA6E44",
"n c #A86C42",
"o c #A76B41",
"p c #A5693F",
"q c #A4683E",
"r c #A2663C",
"s c #A0643A",
"t c #9E6238",
"u c #9B5F35",
"v c #965A30",
"w c #91552B",
"x c #6D4123",
"y c #3C291F",
"z c #3A271D",
"A c #39261C",
"B c #38251B",
"C c #37241A",
"D c #352218",
"E c #332016",
"F c #301D13",
"aaaaabaaaaaaaaapyCchhccbhbagbhbbauCzcabaaaaaaaaacaaoDzlnjmqklsgs",
"bihhbjebhdcgchbkEyiorpomhsohmlfmltyzcbibbdembdebgfgqyCsswuuwtwus",
"jleehcclekoqbeasDCjmnrvsfkhqpsmommEAebfecbdgjchgdbhhyFlnvtwuvuww",
"chhfjecqdijliicrzEejtjdqlonoqkjogpAEabnifbbecbjbecdqECqvrvwvuurt",
"acebecidfcaabdbjDCjqgqqjqsrllmprjvCFbdbqbhcbgdcdgccryBwvopuwurtv",
"cbeccbccmbbdogdbAzdgsrsoomsmrcqcevzAebdchccdfdhcpbchzFgwttquwtwu",
"bbefhhgcjekecjgkzzisujgmfppfsklmevDFcfeecgmccihabbbjDAsvuuswkwvs",
"cqnwqsolkggioislyzovstswwvwuuuutssFybkmtjqsgolieuqjnFCqwwwwwwwww",
"zzzFCCEAFyBDyABFAyzFyyzDFEDBAEFDFyFBzEzCEECzFACECCCzEyzDFCDAAyCz",
"DDyCCDBACEBEDCBFyzyyEDBzDDzECzDzCFDDDCBCCDDDDyFCFEADyEDECDDCzCCD",
"bbbacaaqEBbaaababcbaabaaacBEtmjefjpejopihfpsFCbaebabeaibfccbgryC",
"cchfdcacDDdqbcoeaccdijidfhyAluvkrpuwowuusqqwzFcnqoslhhlfjcjomuDC",
"bbcchgpoDyfefmcelqelcfcfbhyCtwusuitstvprqvtwyFcenpejfhfmuhohnjCz",
"bdcchbhrDCbfgocahmbeuhljafCChvquqsvprlusuovwyAejjhmteqcjaejgsqDC",
"nobcfdgmzCahnhejggbbbhcbdlEzoquktvssouuuuwruEEgphoirsssjhkjufvyy",
"cbbjjgcfCzcleelbjhcjcccegoBylspovtouuruourhuFEklsiccommpcoqjjkyC",
"nbbaljacyCahkedbbncckfecioEBquruvpqsvpuwumuvyChliojinhinmkmmqsAA",
"rkjrkoojDFbsokpqnmsqmgojrlCFpwxwwwwwwwwwvwwsCEettwsslsussutospEB",
"FyDAyEyByDDyACEyDCDCACCDyyCEBFBBCyyADzzEDCFEyEzEzBzFBDzzCCCBDDDE",
"zFyzFFCECzBCCyDyyDByDAzEBCDyCyzDBDzzEDACEzyFyFCDDBECyAyzFyzADDEC",
"baacbbaaaaaaaabhzAmbbbbbbabcbcabbtzAqjhnmeecnjqbnibsEybbaaacabaa",
"bdgcbgcffncbebceCDiljpmrrijhkkcpjlyAnusrsqqtusqlvnstyAdfcfehehbc",
"alfhfhhbejeabhelCFkmsmlhhmkihlpjhsAypuuqotkursmulsvwCyceachhlcbf",
"ccdecdfbmjekbociBBjpemsrskgnlohhhkEztpoposupupuqruttCAcdkhbcdcjc",
"dhbhgedbmfcgfhehyBblsitmmqmolnjnjsBCpnqwvltfqqtssosvEDcehjfplhch",
"dcebfhgbbdbkbcelCDisfqnhhgponujtnqADkpwtqsttjupvrpuwyDambojhedba",
"acdoehcjhhcdjmhoDCdippenilkenhjmotzzrqvsjvrususwttsqEDecejbcbcdh",
"iqiormkcspsrjoteyAlvqvvwnvuvvvqvpvBzswwwwwwwvuuwwtuuFDamqocitsoi",
"EDFEBBFAEFBFDEDCDEDFDyCzCCBAAECFzCDFBzBzEzCFCECEEzDCADFCCECyzyyC",
"CEzDAyCFEDyDCEBCzEAFDDCBFCDFDBDDAEzBBAyEzEBACEFECCAFBzCCzyyyFyDz",
"babaabalEykhdibmhodcbbehbvBDfbaabjbaabaafaanDymthkkttlclmpohquAB",
"figmeoamFCksptrrospwlqormuCCfmffichgcejomnewyEnutwsvtwuvutvuuwDF",
"begehgcsDBsujfomtjqpossqtvFEbcemhmndjjhdhjgpDFuvwompwtuuwspsnwzy",
"jehbjchhDCisrqsospqstvsnrqEDkcoghbcehbjoeimnAFnovwuvtsvqwvuuvwFF",
"cbekicdfyyllnopqtosqmmvsuuDzegnmjgshphqkccnhDCquuutuvwwvtuvuvwBD",
"bbhceddgBBgmitnvquuqurwjwvyFacijjhdcsefoedepzyuvvsuvwwusrwwwwwyB",
"hrbcecijDBmuulmrssoumtuqhvDFchikhekjmlcnhdlmAFowuwwvqmlrsttvvwBD",
"tsbshjjpyBowvqwwvuwwwuvvvuzEcuoosmslttvutwslACpwwwwwwwwwvvxtxsEF",
"FBEDzEByFFCCBFEBAyDEEEFyDEDACEzCDCzACzFAEDDyCCAFDAEAEFzCACEzBBDE",
"yzCDyEEyAzzyBAECFDCzyDEBEyyECyEDCyBDBCCBCACDDFDyCAzDDBEzACCACFBE",
"ojjpqhhenicijbowEDacbbbabaabacaaboAAocmeconqhespobmvEzpejeeddbhb",
"ksqqnnoqvnmpquqtFDdbipfbhifbhhekomDBqsvtvtvovwuvvtowDyeqsmsstnip",
"dvsvomvurvuusuuwCCccjhejcddlheckjtFzrtruuvvtqrvvsttwyBdnquomptvr",
"eutqnurququqoruuzCbjkhecjffjqocoptDypvutuwqsvuttuuowzBqmokilonms",
"qousjnmsmuustmswzAbmkrehjckjlmhhisFDrvvvvwuptuvvrwowBDflshounoom",
"hussrvqriutprnmwCAebefojqdkgeficmuFzjvvtwvwuwwwutumwEDhogptumwom",
"oqmlmnsuwjnvmttwyFhdcemhljbfcljecoyyvusuoutwrvtuvuwwzzpmssnmsmqf",
"swwwwuvwwwvwtwtuDCbqpmkuvtkrsonuuoCEfvwwwwwwxwwwvwwwBEmvwwuwtuvw",
"yyBCCDDBFCBFDFFAFyCEDCBBBzzCBEDDyECCzDDzBDzCDzyDEFyDDECEyADFAEyB",
"CEBFzFDyDzzBCzzDyyEAACDEAFDFDCFzzAzyzFCECFCCAECFCCFCFAEDyAyzCyBC",
"nqimjmiwBzbbcaacabcbebbbauFzlbbbobehbblhblctCDdcgbidbiabcgcdbuBF",
"wvwuuwuwDygknmlklflkcjghmkBCkomvjvunrnuqntsuAFjmgsmssqfkioinjvEz",
"mnvuujvwyzkbtjmqmmqmljtnjmzFopmhsuqpstnusopuEFmkjglgolcqqhjuhvDz",
"ttprwtswCBdkkpjogmmqmhqejszBtmoqwwvmmqqwqurwzDgorutsnemojsmmvsDC",
"vuvsswuwyEelrfjqgfsmmmlmsrFDihjtrjomtnnjhsjvCygkecjsmqplonoouuCy",
"suvtwsvwzCfqeuijioqcigsfdnFFupmpsumuhojqsotvCEfsupoqonmooumjqvzD",
"utrhuxuwABbkfmgpolhpkhhqcsByovkuqthohosmusmsECjthtoonwmqhtjlrsAF",
"xwwwwwwvAycsutmuusrntjsssjzBpwvvvvwvsuvvtwwvFyevovtvqtssmwvuttCz",
"zDyCByyFzyADyDCDCFyDCDyyABBEEDCDCCzCDCFyzAFDCDAFAzDDEACCDACCDBDD",
"DDFyyFEEyDBEDzyCyyyyDzBFACEzEDDyDyAyBCBzAzEyyzzADECCCADCEEyBCEAy",
"lebhmbdbbcjbbcctAEeeebcbcdbbceahbuzCaaabaacbcaaaaaamADecjhbccccc",
"eqmjmvhsqleknpqvzCfsksjcqrfofsjhjuFCcdbmfcadbiddceefCCemhiqlsqme",
"giqhkqpottrmofiuzDhibmcmfehhmskkcrBAccbejcbefblddhefzBbirgmkkeni",
"hqtjppoqtfjjmnmsAykrniktiemhkoflsnFyjhncbkckndbeebchzBdimmohogel"
};
